svgs/sharp-regular/list-ol.svg

<svg xmlns="http://www.w3.org/2000/svg" viewBox="0 0 512 512"><!--! Font Awesome Pro 6.6.0 by @fontawesome - https://fontawesome.com License - https://fontawesome.com/license (Commercial License) Copyright 2024 Fonticons, Inc. --><path d="M56 32l24 0 24 0 0 24 0 120 8 0 24 0 0 48-24 0-8 0-48 0-8 0-24 0 0-48 24 0 8 0 0-96L32 80l0-48 24 0zM192 72l24 0 272 0 24 0 0 48-24 0-272 0-24 0 0-48zm0 160l24 0 272 0 24 0 0 48-24 0-272 0-24 0 0-48zm0 160l24 0 272 0 24 0 0 48-24 0-272 0-24 0 0-48zM8 352c0-35.3 28.7-64 64-64l17.2 0c34.7 0 62.8 28.1 62.8 62.8c0 17.7-7.5 34.6-20.5 46.5L93.4 432l34.6 0 24 0 0 48-24 0-96 0L8 480l0-24 0-.6 0-10.6 7.8-7.1 83.3-75.9c3.1-2.8 4.8-6.8 4.8-11c0-8.2-6.6-14.8-14.8-14.8L72 336c-8.8 0-16 7.2-16 16L8 352z"/></svg>

<svg xmlns="http://www.w3.org/2000/svg" viewBox="0 0 512 512"><!--! Font Awesome Pro 6.4.2 by @fontawesome - https://fontawesome.com License - https://fontawesome.com/license (Commercial License) Copyright 2023 Fonticons, Inc. --><path d="M56 32H80h24V56 176h8 24v48H112h-8H56 48 24V176H48h8V80H32V32H56zM192 72h24H488h24v48H488 216 192V72zm0 160h24H488h24v48H488 216 192V232zm0 160h24H488h24v48H488 216 192V392zM8 352c0-35.3 28.7-64 64-64H89.2c34.7 0 62.8 28.1 62.8 62.8c0 17.7-7.5 34.6-20.5 46.5L93.4 432H128h24v48H128 32 8V456v-.6V444.8l7.8-7.1 83.3-75.9c3.1-2.8 4.8-6.8 4.8-11c0-8.2-6.6-14.8-14.8-14.8H72c-8.8 0-16 7.2-16 16H8z"/></svg>
